X:8
T:Miss Gordon of Lesmore's Strathspey
S:Petrie's Third Collection of Strathspey Reels and Country Dances &c.
Z:Steve Wyrick <sjwyrick'at'gmail'dot'com>, 7/30/05
N:Petrie's Third Collection, page 5
L:1/8
M:C
R:Strathspey
K:F
"^Slow"
C|F>GA>B Tc>AF>A|G/A/B/c/ d/c/B/A/ G>FE<C|TF>GA>B c>Af>c|DB/D/ C/F/D/B/ AFF:|
c|f>ca>f b>ga>f|e/c/b/g/ af Tg>fd>e|f>ga<f c/A/a/f/ cA|d<fTc>B AFFc|
fcAF dBGE|F/A/c/f/ a/f/c/A/ BGGA/G/|F>A,B,>C D>EF>d|cf (e/d/)(c/B/) AFF|]
